X: 30524
T: THREE FINGERED JACK
C:
%R: reel
B: Elias Howe "The Musician's Companion" Part 3 1844 p.52 #4
S: http://imslp.org/wiki/The_Musician's_Companion_(Howe,_Elias)
S: https://archive.org/stream/firstthirdpartof03howe/#page/66/mode/1up
Z: 2015 John Chambers <jc:trillian.mit.edu>
M: 2/4
L: 1/16
K: F
% - - - - - - - - - - - - - - - - - - - - - - - - -
cB |\
Acfa gbeg | fafc AcAF | EFGA Bcdc | BGEG FEcB |\
Acfa gbeg | fafc AcAF | Dfed cABG | F2A2F2 :|
|: Ac |\
BAGF EdcB | Acfc acfc | BAGF EdcB | Acfc acfc |\
dBba gfed | cAdc BAGF | Dfed cABG | F2A2F2 :|
% - - - - - - - - - - - - - - - - - - - - - - - - -
